X:1
T:The Old Man in the Old Country
M:6/8
L:1/8
K:C
 A| AAA ABA| G2 E C3| A2- G A2 B| d2- c- A2 A| Add d2 d/2d/2| e2 d c2 A|\
 c2 BA-G E| G2 G D3| A3 E2- D| E3- D2||
